X:1
T:Canticles
T:Frederic Field Bullard, 1902
T:Canticles
T:Public Domain
C:Frederic Field Bullard, 1902
Z:Public Domain
%%score ( 1 2 ) ( 3 4 )
L:1/8
M:2/4
K:G
V:1 treble 
V:2 treble 
V:3 bass 
V:4 bass 
V:1
 [Gd][GB] [GB](A/G/) | [Gd][DB] [DG][B,D] | [CE] [CG]2 [CE] | [B,D]4 | [Gd][GB] [GB](A/G/) | %5
 [Gd][DB] [DG][B,D] | [DF] [DG]2 [^CE] | D4 | D[DF] (EG) | [DF][DA] (GB) | [GA][Gc] [GB][Gd] | %11
 [Gc][Ge] [Fd][Ac] | [GB]>[FA] [EG][DF] | ([CE][DF]) [DG][Ec] | E D3 | [DG]4 |] %16
V:2
 x3 D | x4 | x4 | x4 | x3 D | x4 | x4 | D4 | D D2 x | x2 D2 | x4 | x4 | x4 | x4 | A4 | x4 |] %16
V:3
 [G,B,][G,D] [G,D](C/B,/) | [G,,B,][B,,G,] [D,B,]G, | [C,G,] [E,G,]2 [C,G,] | [G,,G,]4 | %4
 [G,B,][G,D] [G,D](C/B,/) | [G,,B,][B,,G,] [D,B,]G, | [A,,A,] [A,,B,]2 [A,,G,] | [D,F,]4 | %8
 [D,F,][D,A,] (G,E,) | [D,A,][D,F,] (B,G,) | [D,C][D,A,] [D,D][D,B,] | [D,E][D,C] [D,A,][F,D] | %12
 [G,D]>[D,C] [E,B,][B,,G,] | (G,A,) [B,,G,][A,,G,] | G, F,2 C | [G,B,]4 |] %16
V:4
 x3 G, | x3 G, | x4 | x4 | x3 G, | x3 G, | x4 | x4 | x2 D,2 | x2 D,2 | x4 | x4 | x4 | C,2 x2 | %14
 D,4 | x4 |] %16

